dist/icons/svgs/scale-balanced-outline.svg

<svg xmlns="http://www.w3.org/2000/svg" width="24" height="24" fill="currentcolor" class="icon-scale-balanced-outline" viewBox="0 0 24 24">
  <path d="M21.3127 3.875C21.8205 3.875 22.2502 4.30469 22.2502 4.8125C22.2502 5.35938 21.8205 5.75 21.3127 5.75H16.5471C16.3127 6.88281 15.4924 7.78125 14.4377 8.13281V20.125H21.3127C21.8205 20.125 22.2502 20.5547 22.2502 21.0625C22.2502 21.6094 21.8205 22 21.3127 22H13.5002H5.68768C5.1408 22 4.75018 21.6094 4.75018 21.0625C4.75018 20.5547 5.1408 20.125 5.68768 20.125H12.5627V8.13281C11.4689 7.78125 10.6486 6.88281 10.4142 5.75H5.68768C5.1408 5.75 4.75018 5.35938 4.75018 4.8125C4.75018 4.30469 5.1408 3.875 5.68768 3.875H10.6096C11.1174 2.78125 12.2111 2 13.5002 2C14.7502 2 15.883 2.78125 16.3517 3.875H21.3127ZM21.0002 9.65625L18.1486 14.5H23.8127L21.0002 9.65625ZM16.0783 15.2031C15.9611 14.7734 16.1174 14.3047 16.3127 13.9531L20.0236 7.54688C20.2189 7.23438 20.6096 7 21.0002 7C21.3517 7 21.7424 7.23438 21.9377 7.54688L25.6486 13.9141C25.883 14.3047 26.0002 14.7734 25.9221 15.2031C25.4924 16.9219 23.4221 18.25 21.0002 18.25C18.5392 18.25 16.4689 16.9219 16.0783 15.2031ZM3.10955 14.5H8.77361L5.92205 9.65625L3.10955 14.5ZM5.92205 18.25C3.50018 18.25 1.42987 16.9219 1.00018 15.2031C0.922053 14.7734 1.03924 14.3047 1.27362 13.9531L4.98455 7.54688C5.17986 7.23438 5.53143 7 5.92205 7C6.31268 7 6.66424 7.23438 6.85955 7.54688L10.6096 13.9141C10.8049 14.3047 10.9611 14.7734 10.8439 15.2031C10.4533 16.9219 8.38299 18.25 5.92205 18.25ZM13.5002 3.875C12.7971 3.875 12.2502 4.46094 12.2502 5.125C12.2502 5.82812 12.7971 6.375 13.5002 6.375C14.1642 6.375 14.7502 5.82812 14.7502 5.125C14.7502 4.46094 14.1642 3.875 13.5002 3.875Z"/>
</svg>

<svg xmlns="http://www.w3.org/2000/svg" width="24" height="24" fill="currentColor" class="icon-scale-balanced-outline" viewBox="0 0 24 24">
  <path d="M21.313 3.875a.95.95 0 0 1 .937.938c0 .546-.43.937-.937.937h-4.766a3.2 3.2 0 0 1-2.11 2.383v11.992h6.876a.95.95 0 0 1 .937.938c0 .546-.43.937-.937.937H5.688c-.547 0-.938-.39-.938-.937 0-.508.39-.938.938-.938h6.875V8.133a3.17 3.17 0 0 1-2.149-2.383H5.688c-.547 0-.938-.39-.938-.937 0-.508.39-.938.938-.938h4.922C11.117 2.781 12.21 2 13.5 2c1.25 0 2.383.781 2.852 1.875zM21 9.656 18.15 14.5h5.664zm-4.922 5.547c-.117-.43.04-.898.235-1.25l3.71-6.406C20.22 7.234 20.61 7 21 7c.352 0 .742.234.938.547l3.71 6.367c.235.39.352.86.274 1.29-.43 1.718-2.5 3.046-4.922 3.046-2.46 0-4.531-1.328-4.922-3.047M3.11 14.5h5.664L5.922 9.656zm2.812 3.75C3.5 18.25 1.43 16.922 1 15.203c-.078-.43.04-.898.274-1.25l3.71-6.406C5.18 7.234 5.532 7 5.923 7s.742.234.938.547l3.75 6.367c.195.39.351.86.234 1.29-.39 1.718-2.461 3.046-4.922 3.046M13.5 3.875c-.703 0-1.25.586-1.25 1.25 0 .703.547 1.25 1.25 1.25.664 0 1.25-.547 1.25-1.25 0-.664-.586-1.25-1.25-1.25"/>
</svg>
